;FLAVOR:Marlin
;TIME:8015
;Filament used: 6.93439m
;Layer height: 0.2
;MINX:72.916
;MINY:36.633
;MINZ:0.2
;MAXX:147.091
;MAXY:183.377
;MAXZ:22.6
;Generated with Cura_SteamEngine 5.4.0
M82 ;absolute extrusion mode
; Ender 3 S1 Pro Start G-code
; M413 S0 ; Disable power loss recovery
G92 E0 ; Reset Extruder

; Prep surfaces before auto home for better accuracy
M140 S60
M104 S200

G28 O ; Home all untrusted axes
G1 Z10.0 F3000 ; Move Z Axis up little to prevent scratching of Heat Bed
G1 X0 Y0

M190 S60
M109 S200

G1 X0.1 Y20 Z0.3 F5000.0 ; Move to start position
G1 X0.1 Y200.0 Z0.3 F1500.0 E15 ; Draw the first line
G1 X0.4 Y200.0 Z0.3 F5000.0 ; Move to side a little
G1 X0.4 Y20 Z0.3 F1500.0 E30 ; Draw the second line
G92 E0 ; Reset Extruder
G1 Z2.0 F3000 ; Move Z Axis up little to prevent scratching of Heat Bed
G1 X5 Y20 Z0.3 F5000.0 ; Move over to prevent blob squish

G92 E0
G92 E0
G1 F2400 E-0.8
;LAYER_COUNT:113
;LAYER:0
M107
M204 S2000
G0 F7500 X91.937 Y52.37 Z0.2
M204 S500
;TYPE:SKIRT
G1 F2400 E0
G1 F1500 X92.279 Y51.823 E0.02146
G1 X93.542 Y49.906 E0.09781
G1 X94.038 Y49.177 E0.12714
G1 X94.625 Y48.393 E0.15971
G1 X94.988 Y47.974 E0.17815
G1 X95.838 Y47.042 E0.22011
G1 X96.448 Y46.398 E0.24961
G1 X96.88 Y45.969 E0.26986
G1 X97.658 Y45.244 E0.30523
G1 X98.52 Y44.475 E0.34365
G1 X99.02 Y44.057 E0.36532
G1 X99.886 Y43.379 E0.40191
G1 X100.81 Y42.691 E0.44022
G1 X101.386 Y42.291 E0.46355
G1 X102.685 Y41.456 E0.51491
G1 X103.272 Y41.097 E0.53779
G1 X103.842 Y40.771 E0.55963
G1 X105.179 Y40.067 E0.60989
G1 X105.805 Y39.755 E0.63315
G1 X106.347 Y39.504 E0.65302
G1 X107.334 Y39.082 E0.68872
G1 X108.385 Y38.659 E0.7264
G1 X109.086 Y38.405 E0.7512
G1 X110.539 Y37.939 E0.80195
G1 X111.204 Y37.74 E0.82504
G1 X111.752 Y37.594 E0.8439
G1 X112.806 Y37.348 E0.8799
G1 X113.888 Y37.118 E0.91669
G1 X114.573 Y36.997 E0.93983
G1 X115.815 Y36.822 E0.98155
G1 X116.402 Y36.757 E1.00119
G1 X117.034 Y36.706 E1.02228
G1 X118.375 Y36.643 E1.06693
G1 X118.924 Y36.633 E1.08519
G1 X119.581 Y36.64 E1.10704
G1 X120.877 Y36.701 E1.1502
G1 X121.421 Y36.741 E1.16834
G1 X122.08 Y36.812 E1.19038
G1 X123.066 Y36.946 E1.22348
G1 X123.883 Y37.079 E1.25101
G1 X124.567 Y37.216 E1.27421
G1 X125.613 Y37.46 E1.30994
G1 X126.455 Y37.683 E1.33891
G1 X127.05 Y37.864 E1.35959
G1 X128.327 Y38.297 E1.40444
G1 X128.83 Y38.486 E1.42231
G1 X129.444 Y38.737 E1.44438
G1 X130.372 Y39.15 E1.47816
G1 X131.145 Y39.517 E1.50662
G1 X131.729 Y39.821 E1.52852
G1 X132.592 Y40.308 E1.56148
G1 X133.444 Y40.816 E1.59447
G1 X133.951 Y41.142 E1.61452
G1 X134.372 Y41.43 E1.63148
G1 X135.04 Y41.909 E1.65882
G1 X135.511 Y42.27 E1.67856
G1 X136.036 Y42.698 E1.70109
G1 X136.968 Y43.484 E1.74164
G1 X137.441 Y43.908 E1.76277
G1 X137.941 Y44.386 E1.78577
G1 X138.405 Y44.855 E1.80772
G1 X139.148 Y45.655 E1.84403
G1 X139.482 Y46.031 E1.86076
G1 X139.985 Y46.628 E1.88672
G1 X140.378 Y47.123 E1.90774
G1 X140.9 Y47.821 E1.93673
G1 X141.295 Y48.381 E1.95953
G1 X141.571 Y48.796 E1.9761
G1 X142.628 Y50.481 E2.04226
G1 X143.435 Y51.822 E2.09432
G1 X143.86 Y52.55 E2.12235
G1 X144.281 Y53.349 E2.15239
G1 X144.736 Y54.46 E2.19232
G1 X144.959 Y55.124 E2.21562
G1 X146.444 Y59.93 E2.38292
G1 X146.651 Y60.639 E2.40749
G1 X146.865 Y61.517 E2.43755
G1 X147.021 Y62.547 E2.4722
G1 X147.079 Y63.454 E2.50242
G1 X147.091 Y64.153 E2.52568
G1 X147.09 Y67.819 E2.64761
G1 X147.078 Y68.548 E2.67186
G1 X147.019 Y69.521 E2.70428
G1 X146.876 Y70.469 E2.73617
G1 X146.757 Y71.002 E2.75433
G1 X146.515 Y71.976 E2.78771
G1 X143.656 Y82.771 E3.15913
G1 X142.973 Y85.516 E3.25322
G1 X142.581 Y87.208 E3.31098
G1 X142.029 Y89.746 E3.39737
G1 X141.569 Y92.192 E3.48015
G1 X141.178 Y94.65 E3.56293
G1 X140.846 Y97.2 E3.64846
G1 X140.595 Y99.676 E3.73124
G1 X140.414 Y102.17 E3.8144
G1 X140.3 Y104.712 E3.89904
G1 X140.258 Y107.232 E3.98286
G1 X140.315 Y110.837 E4.10278
G1 X140.314 Y151.026 E5.43947
G1 X140.302 Y151.783 E5.46465
G1 X140.244 Y152.756 E5.49707
G1 X140.098 Y153.719 E5.52947
G1 X139.867 Y154.665 E5.56186
G1 X139.555 Y155.587 E5.59423
G1 X139.164 Y156.476 E5.62653
G1 X138.758 Y157.223 E5.65481
G1 X137.436 Y159.444 E5.74078
G1 X136.228 Y161.606 E5.82315
G1 X135.052 Y163.859 E5.90768
G1 X134.415 Y165.19 E5.95676
G1 X134.275 Y165.453 E5.96667
G1 X133.743 Y166.541 E6.00695
G1 X133.162 Y167.577 E6.04645
G1 X132.727 Y168.259 E6.07336
G1 X129.174 Y173.64 E6.28783
G1 X128.678 Y174.367 E6.3171
G1 X128.093 Y175.144 E6.34945
G1 X127.441 Y175.868 E6.38185
G1 X126.76 Y176.503 E6.41282
G1 X126.308 Y176.868 E6.43215
G1 X125.198 Y177.714 E6.47856
G1 X124.659 Y178.099 E6.5006
G1 X124.158 Y178.435 E6.52066
G1 X123.081 Y179.109 E6.56292
G1 X122.392 Y179.516 E6.58953
G1 X121.827 Y179.828 E6.611
G1 X120.715 Y180.391 E6.65245
G1 X119.994 Y180.734 E6.67901
G1 X119.405 Y180.991 E6.70038
G1 X118.236 Y181.455 E6.74222
G1 X117.462 Y181.74 E6.76965
G1 X116.837 Y181.949 E6.79157
G1 X115.965 Y182.21 E6.82184
G1 X114.891 Y182.501 E6.85885
G1 X114.241 Y182.653 E6.88105
G1 X112.87 Y182.926 E6.92755
G1 X112.178 Y183.044 E6.9509
G1 X111.531 Y183.134 E6.97262
G1 X110.179 Y183.276 E7.01784
G1 X109.525 Y183.328 E7.03966
G1 X108.871 Y183.358 E7.06143
G1 X107.772 Y183.377 E7.09799
G1 X106.818 Y183.371 E7.12972
G1 X106.186 Y183.345 E7.15076
G1 X105.247 Y183.278 E7.18207
G1 X104.135 Y183.172 E7.21923
G1 X103.49 Y183.087 E7.24086
G1 X102.594 Y182.941 E7.27106
G1 X101.497 Y182.734 E7.30819
G1 X100.817 Y182.581 E7.33137
G1 X99.411 Y182.21 E7.37973
G1 X98.812 Y182.035 E7.40049
G1 X98.213 Y181.84 E7.42144
G1 X96.96 Y181.389 E7.46573
G1 X96.294 Y181.128 E7.48953
G1 X95.678 Y180.865 E7.5118
G1 X94.701 Y180.41 E7.54765
G1 X93.262 Y179.689 E7.60118
G1 X90.767 Y178.344 E7.69546
G1 X90.108 Y177.976 E7.72056
G1 X89.306 Y177.479 E7.75194
G1 X88.336 Y176.736 E7.79258
G1 X87.794 Y176.264 E7.81649
G1 X85.143 Y173.858 E7.93556
G1 X84.578 Y173.332 E7.96123
G1 X83.892 Y172.631 E7.99386
G1 X83.191 Y171.763 E8.03096
G1 X82.713 Y171.102 E8.0581
G1 X80.741 Y168.292 E8.17227
G1 X80.22 Y167.526 E8.20309
G1 X79.747 Y166.757 E8.23311
G1 X79.462 Y166.214 E8.25351
G1 X79.203 Y165.687 E8.27304
G1 X78.043 Y163.403 E8.35824
G1 X76.847 Y161.204 E8.4415
G1 X75.585 Y159.035 E8.52496
G1 X74.79 Y157.752 E8.57517
G1 X74.448 Y157.176 E8.59745
G1 X73.992 Y156.316 E8.62982
G1 X73.613 Y155.419 E8.66221
G1 X73.324 Y154.525 E8.69346
G1 X73.102 Y153.541 E8.72701
G1 X72.973 Y152.588 E8.759
G1 X72.933 Y151.959 E8.77996
G1 X72.916 Y151.269 E8.80292
G1 X72.917 Y111.069 E10.13997
G1 X72.928 Y110.347 E10.16399
G1 X72.988 Y109.359 E10.19691
G1 X73.134 Y108.395 E10.22934
G1 X73.365 Y107.448 E10.26176
G1 X73.653 Y106.592 E10.2918
G1 X74.065 Y105.649 E10.32603
G1 X74.325 Y105.155 E10.34459
G1 X75.68 Y102.73 E10.43699
G1 X76.854 Y100.479 E10.52143
G1 X77.956 Y98.213 E10.60523
G1 X78.982 Y95.943 E10.68809
G1 X79.982 Y93.549 E10.77438
G1 X80.862 Y91.264 E10.85582
G1 X81.686 Y88.928 E10.93821
G1 X82.828 Y85.299 E11.06474
G1 X83.046 Y84.555 E11.09053
G1 X83.823 Y81.737 E11.18775
G1 X90.542 Y55.853 E12.07719
G1 X90.738 Y55.14 E12.10179
G1 X91.015 Y54.281 E12.13181
G1 X91.425 Y53.313 E12.16677
G1 X91.937 Y52.37 E12.20246
M204 S2000
G0 F7500 X92.289 Y52.561
M204 S500
G1 F1500 X92.613 Y52.043 E12.22278
G1 X93.873 Y50.131 E12.29894
G1 X94.369 Y49.402 E12.32827
G1 X94.927 Y48.655 E12.35928
G1 X95.284 Y48.243 E12.37741
G1 X96.128 Y47.317 E12.41908
G1 X96.73 Y46.682 E12.44819
G1 X97.153 Y46.262 E12.46801
G1 X97.931 Y45.537 E12.50338
G1 X98.777 Y44.782 E12.5411
G1 X99.267 Y44.372 E12.56235
G1 X100.125 Y43.7 E12.59859
G1 X101.038 Y43.02 E12.63646
G1 X101.614 Y42.62 E12.65978
G1 X102.893 Y41.797 E12.71037
G1 X103.471 Y41.444 E12.73289
G1 X104.028 Y41.125 E12.75424
G1 X105.357 Y40.425 E12.8042
G1 X105.973 Y40.118 E12.82709
G1 X106.504 Y39.872 E12.84656
G1 X107.484 Y39.453 E12.88201
G1 X108.521 Y39.035 E12.9192
G1 X109.208 Y38.786 E12.9435
G1 X110.653 Y38.322 E12.99398
G1 X111.307 Y38.127 E13.01668
G1 X111.855 Y37.981 E13.03554
G1 X112.889 Y37.739 E13.07086
G1 X113.958 Y37.512 E13.10721
G1 X114.629 Y37.393 E13.12987
G1 X115.859 Y37.22 E13.17118
G1 X116.434 Y37.156 E13.19043
G1 X117.053 Y37.106 E13.21108
G1 X118.382 Y37.043 E13.25533
G1 X118.92 Y37.033 E13.27323
G1 X119.562 Y37.04 E13.29459
G1 X120.848 Y37.1 E13.33741
G1 X121.379 Y37.139 E13.35511
G1 X122.026 Y37.208 E13.37676
G1 X123.002 Y37.341 E13.40952
G1 X123.805 Y37.471 E13.43657
G1 X124.476 Y37.605 E13.45933
G1 X125.511 Y37.847 E13.49468
G1 X126.339 Y38.066 E13.52317
G1 X126.922 Y38.243 E13.54343
G1 X128.187 Y38.672 E13.58786
G1 X128.679 Y38.856 E13.60533
G1 X129.281 Y39.102 E13.62696
G1 X130.2 Y39.511 E13.66042
G1 X130.96 Y39.872 E13.6884
G1 X131.544 Y40.176 E13.7103
G1 X132.387 Y40.651 E13.74249
G1 X133.228 Y41.153 E13.77506
G1 X133.725 Y41.472 E13.7947
G1 X134.139 Y41.755 E13.81138
G1 X134.797 Y42.227 E13.83832
G1 X135.258 Y42.58 E13.85763
G1 X135.778 Y43.004 E13.87994
G1 X136.701 Y43.782 E13.92009
G1 X137.165 Y44.198 E13.94082
G1 X137.657 Y44.667 E13.96343
G1 X138.112 Y45.127 E13.98495
G1 X138.849 Y45.921 E14.02098
G1 X139.176 Y46.289 E14.03735
G1 X139.672 Y46.877 E14.06294
G1 X140.058 Y47.363 E14.08358
G1 X140.573 Y48.051 E14.11217
G1 X140.962 Y48.603 E14.13463
G1 X141.232 Y49.009 E14.15084
G1 X142.285 Y50.687 E14.21673
G1 X143.09 Y52.024 E14.26864
G1 X143.506 Y52.736 E14.29607
G1 X143.927 Y53.535 E14.32611
G1 X144.357 Y54.588 E14.36394
G1 X144.577 Y55.242 E14.38689
G1 X146.06 Y60.042 E14.55398
G1 X146.262 Y60.734 E14.57796
G1 X146.476 Y61.612 E14.60801
G1 X146.622 Y62.573 E14.64034
G1 X146.679 Y63.461 E14.66994
G1 X146.691 Y64.153 E14.69296
G1 X146.69 Y67.813 E14.81469
G1 X146.679 Y68.524 E14.83834
G1 X146.623 Y69.462 E14.8696
G1 X146.485 Y70.382 E14.90054
G1 X146.369 Y70.905 E14.91835
G1 X146.128 Y71.874 E14.95157
G1 X143.269 Y82.669 E15.32299
G1 X142.585 Y85.419 E15.41724
G1 X142.191 Y87.118 E15.47525
G1 X141.638 Y89.661 E15.56181
G1 X141.176 Y92.118 E15.64496
G1 X140.781 Y94.598 E15.72848
G1 X140.449 Y97.148 E15.81401
G1 X140.197 Y99.636 E15.89719
G1 X140.014 Y102.152 E15.98109
G1 X139.9 Y104.694 E16.06572
G1 X139.858 Y107.225 E16.14992
G1 X139.915 Y110.837 E16.27007
G1 X139.914 Y151.02 E17.60656
G1 X139.903 Y151.76 E17.63117
G1 X139.848 Y152.697 E17.66239
G1 X139.709 Y153.625 E17.6936
G1 X139.488 Y154.537 E17.72481
G1 X139.189 Y155.426 E17.75601
G1 X138.812 Y156.285 E17.78721
G1 X138.414 Y157.018 E17.81495
G1 X137.092 Y159.239 E17.90092
G1 X135.873 Y161.421 E17.98405
G1 X134.697 Y163.674 E18.06858
G1 X134.062 Y165.002 E18.11754
G1 X133.922 Y165.265 E18.12745
G1 X133.394 Y166.345 E18.16743
G1 X132.813 Y167.381 E18.20694
G1 X132.393 Y168.039 E18.2329
G1 X128.843 Y173.415 E18.44717
G1 X128.358 Y174.127 E18.47583
G1 X127.795 Y174.877 E18.50702
G1 X127.168 Y175.575 E18.53822
G1 X126.487 Y176.21 E18.56919
G1 X126.066 Y176.55 E18.58719
G1 X124.965 Y177.389 E18.63323
G1 X124.436 Y177.767 E18.65486
G1 X123.946 Y178.096 E18.67449
G1 X122.878 Y178.765 E18.7164
G1 X122.199 Y179.166 E18.74263
G1 X121.646 Y179.471 E18.76364
G1 X120.543 Y180.03 E18.80476
G1 X119.834 Y180.367 E18.83087
G1 X119.257 Y180.619 E18.85182
G1 X118.098 Y181.08 E18.8933
G1 X117.335 Y181.361 E18.92035
G1 X116.722 Y181.566 E18.94184
G1 X115.86 Y181.824 E18.97177
G1 X114.8 Y182.112 E19.0083
G1 X114.163 Y182.261 E19.03006
G1 X112.803 Y182.532 E19.07619
G1 X112.123 Y182.648 E19.09913
G1 X111.489 Y182.736 E19.12042
G1 X110.147 Y182.877 E19.1653
G1 X109.506 Y182.928 E19.18669
G1 X108.864 Y182.958 E19.20806
G1 X107.775 Y182.977 E19.24429
G1 X106.834 Y182.971 E19.27559
G1 X106.214 Y182.946 E19.29623
G1 X105.285 Y182.88 E19.3272
G1 X104.187 Y182.775 E19.36389
G1 X103.554 Y182.692 E19.38512
G1 X102.668 Y182.548 E19.41498
G1 X101.585 Y182.344 E19.45163
G1 X100.919 Y182.194 E19.47434
G1 X99.523 Y181.826 E19.52235
G1 X98.936 Y181.655 E19.54269
G1 X98.349 Y181.464 E19.56322
G1 X97.106 Y181.016 E19.60717
G1 X96.451 Y180.76 E19.63056
G1 X95.847 Y180.502 E19.6524
G1 X94.88 Y180.052 E19.68788
G1 X93.452 Y179.337 E19.74099
G1 X90.962 Y177.995 E19.83507
G1 X90.319 Y177.636 E19.85957
G1 X89.517 Y177.139 E19.89095
G1 X88.58 Y176.419 E19.93025
G1 X88.063 Y175.968 E19.95307
G1 X85.415 Y173.565 E20.072
G1 X84.863 Y173.052 E20.09707
G1 X84.203 Y172.38 E20.12839
G1 X83.515 Y171.529 E20.16479
G1 X83.04 Y170.872 E20.19176
G1 X81.072 Y168.067 E20.30572
G1 X80.561 Y167.316 E20.33593
G1 X80.088 Y166.547 E20.36596
G1 X79.821 Y166.038 E20.38508
G1 X79.56 Y165.506 E20.40479
G1 X78.4 Y163.222 E20.48999
G1 X77.193 Y161.003 E20.57401
G1 X75.931 Y158.834 E20.65747
G1 X75.134 Y157.548 E20.70779
G1 X74.801 Y156.988 E20.72946
G1 X74.36 Y156.16 E20.76066
G1 X73.994 Y155.296 E20.79187
G1 X73.705 Y154.402 E20.82312
G1 X73.498 Y153.487 E20.85432
G1 X73.372 Y152.563 E20.88534
G1 X73.333 Y151.949 E20.9058
G1 X73.316 Y151.269 E20.92843
G1 X73.317 Y111.075 E22.26528
G1 X73.327 Y110.371 E22.2887
G1 X73.384 Y109.418 E22.32046
G1 X73.523 Y108.489 E22.3517
G1 X73.744 Y107.576 E22.38294
G1 X74.032 Y106.72 E22.41298
G1 X74.419 Y105.835 E22.44511
G1 X74.674 Y105.35 E22.46333
G1 X76.035 Y102.915 E22.55611
G1 X77.209 Y100.664 E22.64055
G1 X78.316 Y98.388 E22.72473
G1 X79.346 Y96.108 E22.80794
G1 X80.351 Y93.703 E22.89464
G1 X81.235 Y91.408 E22.97644
G1 X82.068 Y89.048 E23.05968
G1 X83.21 Y85.419 E23.18621
G1 X83.43 Y84.667 E23.21227
G1 X84.209 Y81.843 E23.30971
G1 X90.928 Y55.959 E24.19914
G1 X91.119 Y55.263 E24.22315
G1 X91.396 Y54.404 E24.25317
G1 X91.777 Y53.504 E24.28567
G1 X92.289 Y52.561 E24.32136
M204 S2000
G0 F7500 X92.641 Y52.752
M204 S500
G1 F1500 X92.947 Y52.263 E24.34055
G1 X94.204 Y50.356 E24.41652
G1 X94.69 Y49.641 E24.44527
G1 X95.23 Y48.917 E24.47531
G1 X95.58 Y48.512 E24.49312
G1 X96.418 Y47.592 E24.53451
G1 X97.011 Y46.966 E24.56319
G1 X97.426 Y46.555 E24.58261
G1 X98.204 Y45.83 E24.61798
G1 X99.034 Y45.089 E24.65499
G1 X99.514 Y44.687 E24.67581
G1 X100.364 Y44.021 E24.71173
G1 X101.266 Y43.348 E24.74916
G1 X101.83 Y42.956 E24.772
G1 X103.102 Y42.138 E24.8223
G1 X103.669 Y41.791 E24.84441
G1 X104.215 Y41.479 E24.86533
G1 X105.535 Y40.783 E24.91496
G1 X106.141 Y40.481 E24.93748
G1 X106.661 Y40.24 E24.95654
G1 X107.634 Y39.824 E24.99174
G1 X108.658 Y39.411 E25.02846
G1 X109.33 Y39.167 E25.05224
G1 X110.767 Y38.705 E25.10245
G1 X111.41 Y38.514 E25.12476
G1 X111.958 Y38.368 E25.14362
G1 X112.972 Y38.13 E25.17826
G1 X114.028 Y37.906 E25.21417
G1 X114.685 Y37.789 E25.23636
G1 X115.903 Y37.618 E25.27727
G1 X116.466 Y37.555 E25.29611
G1 X117.072 Y37.506 E25.31633
G1 X118.39 Y37.443 E25.36022
G1 X118.916 Y37.433 E25.37772
G1 X119.544 Y37.44 E25.39861
G1 X120.819 Y37.499 E25.44106
G1 X121.337 Y37.537 E25.45833
G1 X121.972 Y37.604 E25.47957
G1 X122.938 Y37.736 E25.512
G1 X123.727 Y37.863 E25.53858
G1 X124.385 Y37.994 E25.56089
G1 X125.409 Y38.234 E25.59588
G1 X126.223 Y38.449 E25.62388
G1 X126.794 Y38.622 E25.64372
G1 X128.047 Y39.047 E25.68773
G1 X128.528 Y39.226 E25.7048
G1 X129.118 Y39.467 E25.726
G1 X130.028 Y39.872 E25.75913
G1 X130.775 Y40.227 E25.78663
G1 X131.348 Y40.525 E25.80811
G1 X132.182 Y40.994 E25.83994
G1 X133.012 Y41.49 E25.8721
G1 X133.499 Y41.802 E25.89134
G1 X133.906 Y42.08 E25.90773
G1 X134.554 Y42.545 E25.93426
G1 X135.005 Y42.89 E25.95314
G1 X135.52 Y43.31 E25.97525
G1 X136.434 Y44.08 E26.01499
G1 X136.889 Y44.488 E26.03532
G1 X137.373 Y44.948 E26.05753
G1 X137.819 Y45.399 E26.07863
G1 X138.55 Y46.186 E26.11435
G1 X138.87 Y46.547 E26.1304
G1 X139.359 Y47.126 E26.1556
G1 X139.738 Y47.602 E26.17584
G1 X140.246 Y48.282 E26.20407
G1 X140.629 Y48.824 E26.22615
G1 X140.893 Y49.222 E26.24203
G1 X141.942 Y50.893 E26.30765
G1 X142.745 Y52.226 E26.35941
G1 X143.152 Y52.922 E26.38623
G1 X143.573 Y53.721 E26.41627
G1 X143.978 Y54.716 E26.452
G1 X144.195 Y55.36 E26.4746
G1 X145.676 Y60.154 E26.64148
G1 X145.873 Y60.829 E26.66487
G1 X146.087 Y61.707 E26.69493
G1 X146.223 Y62.599 E26.72494
G1 X146.279 Y63.468 E26.7539
G1 X146.291 Y64.153 E26.77669
G1 X146.29 Y67.807 E26.89822
G1 X146.28 Y68.501 E26.92131
G1 X146.227 Y69.403 E26.95136
G1 X146.094 Y70.296 E26.98139
G1 X145.981 Y70.808 E26.99883
G1 X145.741 Y71.772 E27.03187
G1 X142.882 Y82.567 E27.40329
G1 X142.197 Y85.322 E27.49771
G1 X141.801 Y87.028 E27.55596
