;FLAVOR:Marlin
;TIME:8020
;Filament used: 6.93342m
;Layer height: 0.2
;MINX:72.91
;MINY:36.636
;MINZ:0.2
;MAXX:147.084
;MAXY:183.378
;MAXZ:22.6
;Generated with Cura_SteamEngine 5.4.0
M82 ;absolute extrusion mode
; Ender 3 S1 Pro Start G-code
; M413 S0 ; Disable power loss recovery
G92 E0 ; Reset Extruder

; Prep surfaces before auto home for better accuracy
M140 S60
M104 S200

G28 O ; Home all untrusted axes
G1 Z10.0 F3000 ; Move Z Axis up little to prevent scratching of Heat Bed
G1 X0 Y0

M190 S60
M109 S200

G1 X0.1 Y20 Z0.3 F5000.0 ; Move to start position
G1 X0.1 Y200.0 Z0.3 F1500.0 E15 ; Draw the first line
G1 X0.4 Y200.0 Z0.3 F5000.0 ; Move to side a little
G1 X0.4 Y20 Z0.3 F1500.0 E30 ; Draw the second line
G92 E0 ; Reset Extruder
G1 Z2.0 F3000 ; Move Z Axis up little to prevent scratching of Heat Bed
G1 X5 Y20 Z0.3 F5000.0 ; Move over to prevent blob squish

G92 E0
G92 E0
G1 F2400 E-0.8
;LAYER_COUNT:113
;LAYER:0
M107
M204 S2000
G0 F7500 X78.355 Y48.914 Z0.2
M204 S500
;TYPE:SKIRT
G1 F2400 E0
G1 F1500 X78.825 Y48.21 E0.02815
G1 X79.316 Y47.525 E0.05619
G1 X80.027 Y46.613 E0.09465
G1 X80.315 Y46.263 E0.10972
G1 X80.823 Y45.676 E0.13554
G1 X81.39 Y45.064 E0.16329
G1 X81.988 Y44.454 E0.1917
G1 X82.475 Y43.979 E0.21433
G1 X83.04 Y43.473 E0.23956
G1 X84.338 Y42.395 E0.29567
G1 X84.884 Y41.971 E0.31867
G1 X85.755 Y41.346 E0.35432
G1 X86.199 Y41.045 E0.37216
G1 X86.663 Y40.75 E0.39045
G1 X87.319 Y40.358 E0.41587
G1 X88.014 Y39.96 E0.44251
G1 X88.611 Y39.646 E0.46494
G1 X89.509 Y39.206 E0.4982
G1 X90.342 Y38.826 E0.52866
G1 X90.924 Y38.587 E0.54958
G1 X91.892 Y38.221 E0.584
G1 X92.709 Y37.937 E0.61277
G1 X93.315 Y37.753 E0.63383
G1 X94.288 Y37.488 E0.66738
G1 X95.12 Y37.282 E0.69588
G1 X95.774 Y37.147 E0.71809
G1 X96.815 Y36.965 E0.75324
G1 X97.678 Y36.838 E0.78226
G1 X98.332 Y36.768 E0.80413
G1 X99.636 Y36.671 E0.84762
G1 X100.198 Y36.646 E0.86633
G1 X100.84 Y36.636 E0.88769
G1 X101.856 Y36.65 E0.92148
G1 X102.709 Y36.686 E0.94988
G1 X103.335 Y36.735 E0.97077
G1 X104.35 Y36.846 E1.00473
G1 X105.301 Y36.976 E1.03665
G1 X105.913 Y37.081 E1.0573
G1 X107.027 Y37.311 E1.09514
G1 X108.096 Y37.556 E1.13161
G1 X108.742 Y37.727 E1.15384
G1 X109.743 Y38.025 E1.18858
G1 X110.861 Y38.386 E1.22765
G1 X111.513 Y38.62 E1.25069
G1 X112.44 Y38.989 E1.28388
G1 X113.533 Y39.45 E1.32333
G1 X114.124 Y39.721 E1.34496
G1 X115.098 Y40.208 E1.38118
G1 X116.123 Y40.75 E1.41974
G1 X116.766 Y41.119 E1.4444
G1 X117.842 Y41.786 E1.4865
G1 X118.614 Y42.287 E1.51711
G1 X119.126 Y42.644 E1.53787
G1 X119.916 Y43.229 E1.57057
G1 X120.89 Y43.983 E1.61154
G1 X121.475 Y44.47 E1.63685
G1 X122.59 Y45.472 E1.68671
G1 X123.081 Y45.931 E1.70907
G1 X123.561 Y46.408 E1.73158
G1 X124.644 Y47.563 E1.78424
G1 X125.121 Y48.1 E1.80813
G1 X125.935 Y49.134 E1.8519
G1 X126.21 Y49.532 E1.86799
G1 X127.547 Y51.557 E1.94869
G1 X127.95 Y52.19 E1.97365
G1 X128.436 Y53.034 E2.00604
G1 X128.817 Y53.853 E2.03609
G1 X129.257 Y55.121 E2.08073
G1 X129.448 Y55.818 E2.10477
G1 X136.167 Y81.705 E2.9943
G1 X136.959 Y84.573 E3.09326
G1 X137.185 Y85.343 E3.11995
G1 X137.956 Y87.84 E3.20687
G1 X138.779 Y90.263 E3.29198
G1 X139.644 Y92.59 E3.37455
G1 X140.581 Y94.91 E3.45777
G1 X141.603 Y97.242 E3.54246
G1 X142.664 Y99.492 E3.62519
G1 X143.807 Y101.748 E3.70931
G1 X145.038 Y104.018 E3.7952
G1 X145.684 Y105.172 E3.83918
G1 X146.12 Y106.042 E3.87155
G1 X146.454 Y106.881 E3.90159
G1 X146.752 Y107.883 E3.93636
G1 X146.932 Y108.768 E3.96639
G1 X147.067 Y110.159 E4.01288
G1 X147.084 Y110.849 E4.03583
G1 X147.082 Y151.025 E5.37209
G1 X147.07 Y151.783 E5.39731
G1 X147.012 Y152.755 E5.42969
G1 X146.866 Y153.719 E5.46212
G1 X146.635 Y154.665 E5.49451
G1 X146.324 Y155.586 E5.52684
G1 X145.962 Y156.414 E5.5569
G1 X145.445 Y157.355 E5.59261
G1 X144.942 Y158.175 E5.6246
G1 X143.626 Y160.384 E5.71012
G1 X142.406 Y162.567 E5.7933
G1 X140.858 Y165.565 E5.90552
G1 X140.491 Y166.303 E5.93294
G1 X140.028 Y167.141 E5.96478
G1 X139.41 Y168.075 E6.00203
G1 X137.241 Y171.168 E6.12768
G1 X136.797 Y171.779 E6.1528
G1 X136.185 Y172.544 E6.18538
G1 X135.414 Y173.342 E6.22229
G1 X134.802 Y173.911 E6.25008
G1 X132.439 Y176.053 E6.35616
G1 X131.731 Y176.676 E6.38753
G1 X130.965 Y177.287 E6.42012
G1 X130.024 Y177.901 E6.45749
G1 X129.447 Y178.229 E6.47956
G1 X127.001 Y179.548 E6.57199
G1 X125.751 Y180.191 E6.61874
G1 X124.527 Y180.773 E6.66382
G1 X123.864 Y181.061 E6.68786
G1 X122.654 Y181.532 E6.73105
G1 X121.898 Y181.804 E6.75777
G1 X121.293 Y182.001 E6.77894
G1 X120.163 Y182.329 E6.81807
G1 X119.355 Y182.541 E6.84585
G1 X118.73 Y182.685 E6.86719
G1 X117.442 Y182.936 E6.91083
G1 X116.668 Y183.065 E6.93693
G1 X115.982 Y183.155 E6.95994
G1 X114.659 Y183.286 E7.00416
G1 X113.972 Y183.337 E7.02707
G1 X113.349 Y183.364 E7.04781
G1 X112.101 Y183.378 E7.08932
G1 X111.306 Y183.367 E7.11577
G1 X110.624 Y183.335 E7.13848
G1 X109.236 Y183.221 E7.1848
G1 X108.538 Y183.144 E7.20815
G1 X107.92 Y183.058 E7.22891
G1 X106.81 Y182.869 E7.26636
G1 X105.983 Y182.707 E7.29439
G1 X105.268 Y182.541 E7.3188
G1 X104.217 Y182.261 E7.35498
G1 X103.284 Y181.988 E7.38731
G1 X102.702 Y181.796 E7.40769
G1 X101.843 Y181.485 E7.43808
G1 X100.787 Y181.071 E7.4758
G1 X100.186 Y180.813 E7.49756
G1 X99.033 Y180.267 E7.53999
G1 X98.327 Y179.91 E7.5663
G1 X97.75 Y179.597 E7.58813
G1 X96.663 Y178.955 E7.63012
G1 X95.99 Y178.534 E7.65653
G1 X95.435 Y178.163 E7.67873
G1 X94.56 Y177.536 E7.71453
G1 X93.736 Y176.913 E7.74889
G1 X92.99 Y176.286 E7.7813
G1 X92.327 Y175.623 E7.81249
G1 X91.687 Y174.861 E7.84558
G1 X91.369 Y174.422 E7.86361
G1 X90.673 Y173.408 E7.90452
G1 X87.321 Y168.335 E8.10676
G1 X86.838 Y167.579 E8.13659
G1 X86.277 Y166.583 E8.17461
G1 X85.851 Y165.716 E8.20674
G1 X85.399 Y164.764 E8.24179
G1 X84.231 Y162.471 E8.32738
G1 X83.03 Y160.271 E8.41075
G1 X81.901 Y158.326 E8.48555
G1 X81.237 Y157.212 E8.52868
G1 X80.777 Y156.353 E8.56109
G1 X80.397 Y155.457 E8.59346
G1 X80.095 Y154.53 E8.62589
G1 X79.879 Y153.582 E8.65823
G1 X79.75 Y152.66 E8.68919
G1 X79.706 Y152.022 E8.71046
G1 X79.685 Y151.269 E8.73552
G1 X79.687 Y111.066 E10.07268
G1 X79.727 Y108.779 E10.14875
G1 X79.731 Y106.25 E10.23287
G1 X79.664 Y103.75 E10.31605
G1 X79.527 Y101.284 E10.39819
G1 X79.315 Y98.736 E10.48323
G1 X79.029 Y96.193 E10.56835
G1 X78.685 Y93.742 E10.65067
G1 X78.266 Y91.27 E10.73406
G1 X77.766 Y88.761 E10.81915
G1 X77.4 Y87.123 E10.87497
G1 X77.03 Y85.53 E10.92937
G1 X76.345 Y82.774 E11.02382
G1 X73.461 Y71.883 E11.39854
G1 X73.244 Y71.016 E11.42827
G1 X73.064 Y70.131 E11.45831
G1 X72.946 Y69.107 E11.49259
G1 X72.924 Y68.565 E11.51063
G1 X72.91 Y67.72 E11.53874
G1 X72.91 Y64.205 E11.65565
G1 X72.924 Y63.453 E11.68067
G1 X72.986 Y62.484 E11.71296
G1 X73.12 Y61.591 E11.743
G1 X73.322 Y60.729 E11.77244
G1 X73.487 Y60.153 E11.79237
G1 X74.931 Y55.475 E11.95521
G1 X75.195 Y54.659 E11.98373
G1 X75.526 Y53.776 E12.01509
G1 X76.087 Y52.64 E12.05723
G1 X76.44 Y52.028 E12.08073
G1 X77.472 Y50.319 E12.14713
G1 X78.355 Y48.914 E12.20233
M204 S2000
G0 F7500 X78.694 Y49.127
M204 S500
G1 F1500 X79.15 Y48.443 E12.22967
G1 X79.632 Y47.771 E12.25717
G1 X80.336 Y46.867 E12.29528
G1 X80.617 Y46.525 E12.31001
G1 X81.117 Y45.948 E12.3354
G1 X81.676 Y45.344 E12.36277
G1 X82.267 Y44.74 E12.39088
G1 X82.742 Y44.277 E12.41294
G1 X83.296 Y43.781 E12.43767
G1 X84.583 Y42.711 E12.49334
G1 X85.117 Y42.296 E12.51583
G1 X85.979 Y41.677 E12.55113
G1 X86.414 Y41.383 E12.56859
G1 X86.878 Y41.088 E12.58688
G1 X87.518 Y40.705 E12.61169
G1 X88.201 Y40.314 E12.63786
G1 X88.787 Y40.005 E12.6599
G1 X89.675 Y39.57 E12.69279
G1 X90.494 Y39.196 E12.72273
G1 X91.066 Y38.961 E12.7433
G1 X92.023 Y38.599 E12.77733
G1 X92.825 Y38.32 E12.80557
G1 X93.42 Y38.139 E12.82626
G1 X94.384 Y37.876 E12.85949
G1 X95.201 Y37.674 E12.88749
G1 X95.843 Y37.541 E12.90929
G1 X96.873 Y37.361 E12.94407
G1 X97.721 Y37.236 E12.97258
G1 X98.362 Y37.167 E12.99402
G1 X99.654 Y37.071 E13.03711
G1 X100.204 Y37.046 E13.05542
G1 X100.834 Y37.036 E13.07638
G1 X101.839 Y37.05 E13.10981
G1 X102.678 Y37.085 E13.13774
G1 X103.292 Y37.133 E13.15822
G1 X104.296 Y37.242 E13.19181
G1 X105.233 Y37.37 E13.22327
G1 X105.832 Y37.473 E13.24348
G1 X106.938 Y37.701 E13.28104
G1 X107.994 Y37.943 E13.31707
G1 X108.628 Y38.11 E13.33888
G1 X109.62 Y38.406 E13.37331
G1 X110.738 Y38.767 E13.41239
G1 X111.365 Y38.992 E13.43454
G1 X112.284 Y39.357 E13.46743
G1 X113.366 Y39.814 E13.5065
G1 X113.957 Y40.085 E13.52812
G1 X114.911 Y40.562 E13.5636
G1 X115.924 Y41.097 E13.6017
G1 X116.555 Y41.459 E13.6259
G1 X117.624 Y42.122 E13.66773
G1 X118.396 Y42.623 E13.69834
G1 X118.888 Y42.965 E13.71827
G1 X119.671 Y43.545 E13.75068
G1 X120.634 Y44.29 E13.79118
G1 X121.208 Y44.768 E13.81602
G1 X122.317 Y45.764 E13.8656
G1 X122.799 Y46.215 E13.88756
G1 X123.269 Y46.682 E13.90959
G1 X124.352 Y47.837 E13.96225
G1 X124.807 Y48.347 E13.98499
G1 X125.606 Y49.362 E14.02795
G1 X125.876 Y49.752 E14.04373
G1 X127.21 Y51.772 E14.12424
G1 X127.604 Y52.39 E14.14862
G1 X128.073 Y53.203 E14.17983
G1 X128.454 Y54.022 E14.20988
G1 X128.871 Y55.227 E14.25229
G1 X129.061 Y55.918 E14.27612
G1 X135.781 Y81.811 E15.16586
G1 X136.575 Y84.686 E15.26506
G1 X136.801 Y85.456 E15.29175
G1 X137.577 Y87.969 E15.37923
G1 X138.4 Y90.392 E15.46434
G1 X139.273 Y92.74 E15.54766
G1 X140.21 Y95.06 E15.63088
G1 X141.241 Y97.413 E15.71632
G1 X142.307 Y99.673 E15.79943
G1 X143.455 Y101.939 E15.88392
G1 X144.687 Y104.209 E15.96982
G1 X145.327 Y105.352 E16.01339
G1 X145.748 Y106.19 E16.04459
G1 X146.082 Y107.029 E16.07462
G1 X146.36 Y107.963 E16.10703
G1 X146.54 Y108.848 E16.13707
G1 X146.667 Y110.169 E16.18121
G1 X146.684 Y110.849 E16.20383
G1 X146.682 Y151.019 E17.53989
G1 X146.671 Y151.76 E17.56454
G1 X146.616 Y152.696 E17.59573
G1 X146.477 Y153.625 E17.62697
G1 X146.256 Y154.537 E17.65818
G1 X145.957 Y155.426 E17.68938
G1 X145.595 Y156.254 E17.71943
G1 X145.104 Y157.146 E17.7533
G1 X144.598 Y157.97 E17.78546
G1 X143.282 Y160.179 E17.87098
G1 X142.057 Y162.372 E17.95453
G1 X140.503 Y165.381 E18.06717
G1 X140.141 Y166.11 E18.09424
G1 X139.692 Y166.924 E18.12516
G1 X139.428 Y167.334 E18.14138
G1 X139.082 Y167.845 E18.1619
G1 X136.917 Y170.933 E18.28734
G1 X136.484 Y171.53 E18.31187
G1 X135.897 Y172.266 E18.34318
G1 X135.141 Y173.049 E18.37938
G1 X134.533 Y173.615 E18.40701
G1 X132.175 Y175.753 E18.51287
G1 X131.481 Y176.364 E18.54363
G1 X130.746 Y176.952 E18.57493
G1 X129.805 Y177.566 E18.6123
G1 X129.257 Y177.877 E18.63326
G1 X126.818 Y179.192 E18.72542
G1 X125.579 Y179.83 E18.77177
G1 X124.368 Y180.406 E18.81638
G1 X123.719 Y180.688 E18.83991
G1 X122.519 Y181.156 E18.88275
G1 X121.774 Y181.424 E18.90908
G1 X121.182 Y181.617 E18.92979
G1 X120.062 Y181.942 E18.96858
G1 X119.265 Y182.151 E18.99599
G1 X118.653 Y182.292 E19.01688
G1 X117.376 Y182.541 E19.06015
G1 X116.615 Y182.668 E19.08581
G1 X115.943 Y182.757 E19.10836
G1 X114.629 Y182.887 E19.15227
G1 X113.954 Y182.937 E19.17479
G1 X113.344 Y182.964 E19.19509
G1 X112.107 Y182.978 E19.23624
G1 X111.325 Y182.967 E19.26225
G1 X110.657 Y182.936 E19.28449
G1 X109.279 Y182.823 E19.33048
G1 X108.593 Y182.748 E19.35343
G1 X107.987 Y182.664 E19.37378
G1 X106.887 Y182.476 E19.4109
G1 X106.06 Y182.314 E19.43893
G1 X105.371 Y182.155 E19.46244
G1 X104.329 Y181.877 E19.49831
G1 X103.409 Y181.608 E19.53019
G1 X102.838 Y181.42 E19.55019
G1 X101.989 Y181.113 E19.58022
G1 X100.945 Y180.704 E19.61751
G1 X100.357 Y180.451 E19.6388
G1 X99.213 Y179.91 E19.68089
G1 X98.518 Y179.559 E19.70679
G1 X97.953 Y179.252 E19.72817
G1 X96.875 Y178.616 E19.7698
G1 X96.212 Y178.202 E19.7958
G1 X95.668 Y177.838 E19.81757
G1 X94.801 Y177.217 E19.85304
G1 X93.993 Y176.606 E19.88673
G1 X93.273 Y176.003 E19.91797
G1 X92.61 Y175.34 E19.94915
G1 X92.011 Y174.626 E19.98015
G1 X91.699 Y174.195 E19.99785
G1 X91.007 Y173.188 E20.03849
G1 X87.658 Y168.119 E20.24056
G1 X87.187 Y167.383 E20.26962
G1 X86.626 Y166.387 E20.30764
G1 X86.212 Y165.544 E20.33888
G1 X85.76 Y164.592 E20.37393
G1 X84.587 Y162.289 E20.45989
G1 X83.381 Y160.079 E20.54363
G1 X82.247 Y158.125 E20.61877
G1 X81.589 Y157.023 E20.66146
G1 X81.145 Y156.196 E20.69268
G1 X80.777 Y155.333 E20.72388
G1 X80.485 Y154.44 E20.75513
G1 X80.275 Y153.526 E20.78632
G1 X80.149 Y152.632 E20.81635
G1 X80.106 Y152.011 E20.83706
G1 X80.085 Y151.269 E20.86174
G1 X80.087 Y111.073 E22.19867
G1 X80.127 Y108.786 E22.27475
G1 X80.131 Y106.251 E22.35906
G1 X80.064 Y103.739 E22.44264
G1 X79.926 Y101.251 E22.52552
G1 X79.714 Y98.703 E22.61056
G1 X79.427 Y96.148 E22.69607
G1 X79.081 Y93.686 E22.77876
G1 X78.66 Y91.203 E22.86253
G1 X78.158 Y88.683 E22.94799
G1 X77.79 Y87.033 E23.00422
G1 X77.42 Y85.44 E23.05861
G1 X76.732 Y82.672 E23.15348
G1 X73.849 Y71.786 E23.52803
G1 X73.636 Y70.936 E23.55717
G1 X73.456 Y70.051 E23.58721
G1 X73.346 Y69.09 E23.61938
G1 X73.324 Y68.558 E23.63709
G1 X73.31 Y67.713 E23.6652
G1 X73.31 Y64.212 E23.78165
G1 X73.323 Y63.478 E23.80606
G1 X73.382 Y62.543 E23.83722
G1 X73.516 Y61.65 E23.86726
G1 X73.707 Y60.839 E23.89497
G1 X73.869 Y60.271 E23.91461
G1 X75.312 Y55.598 E24.07728
G1 X75.57 Y54.799 E24.1052
G1 X75.885 Y53.953 E24.13523
G1 X76.446 Y52.817 E24.17737
G1 X76.782 Y52.235 E24.19972
G1 X77.811 Y50.532 E24.2659
G1 X78.694 Y49.127 E24.32109
M204 S2000
G0 F7500 X79.027 Y49.349
M204 S500
G1 F1500 X79.475 Y48.676 E24.34798
G1 X79.948 Y48.017 E24.37496
G1 X80.645 Y47.121 E24.41272
G1 X80.919 Y46.787 E24.42709
G1 X81.411 Y46.22 E24.45206
G1 X81.97 Y45.616 E24.47943
G1 X82.546 Y45.026 E24.50685
G1 X83.008 Y44.575 E24.52833
G1 X83.552 Y44.089 E24.55259
G1 X84.829 Y43.027 E24.60783
G1 X85.351 Y42.621 E24.62983
G1 X86.203 Y42.008 E24.66474
G1 X86.629 Y41.72 E24.68184
G1 X87.083 Y41.431 E24.69974
G1 X87.723 Y41.048 E24.72455
G1 X88.388 Y40.668 E24.75002
G1 X88.963 Y40.364 E24.77165
G1 X89.841 Y39.934 E24.80417
G1 X90.647 Y39.566 E24.83364
G1 X91.207 Y39.335 E24.85379
G1 X92.154 Y38.977 E24.88746
G1 X92.942 Y38.703 E24.91521
G1 X93.526 Y38.525 E24.93552
G1 X94.48 Y38.264 E24.96841
G1 X95.283 Y38.066 E24.99592
G1 X95.912 Y37.935 E25.01729
G1 X96.931 Y37.757 E25.05169
G1 X97.764 Y37.634 E25.0797
G1 X98.392 Y37.566 E25.10071
G1 X99.673 Y37.471 E25.14343
G1 X100.21 Y37.446 E25.16131
G1 X100.828 Y37.436 E25.18187
G1 X101.823 Y37.45 E25.21497
G1 X102.647 Y37.484 E25.2424
G1 X103.249 Y37.531 E25.26248
G1 X104.242 Y37.638 E25.2957
G1 X105.165 Y37.764 E25.32668
G1 X105.751 Y37.865 E25.34646
G1 X106.849 Y38.091 E25.38375
G1 X107.892 Y38.33 E25.41934
G1 X108.513 Y38.493 E25.44069
G1 X109.497 Y38.787 E25.47485
G1 X110.615 Y39.148 E25.51392
G1 X111.217 Y39.364 E25.53519
G1 X112.129 Y39.726 E25.56783
G1 X113.199 Y40.177 E25.60645
G1 X113.778 Y40.443 E25.62764
G1 X114.724 Y40.916 E25.66282
G1 X115.725 Y41.444 E25.70046
G1 X116.344 Y41.799 E25.7242
G1 X117.406 Y42.458 E25.76577
G1 X118.168 Y42.952 E25.79597
G1 X118.65 Y43.286 E25.81547
G1 X119.426 Y43.861 E25.8476
G1 X120.378 Y44.597 E25.88762
G1 X120.941 Y45.066 E25.91199
G1 X122.044 Y46.056 E25.96129
G1 X122.517 Y46.498 E25.98282
G1 X122.977 Y46.956 E26.00441
G1 X124.054 Y48.104 E26.05676
G1 X124.493 Y48.595 E26.07867
G1 X125.277 Y49.59 E26.1208
G1 X125.542 Y49.973 E26.13629
G1 X126.873 Y51.987 E26.21659
G1 X127.258 Y52.59 E26.24038
G1 X127.71 Y53.372 E26.27042
G1 X128.091 Y54.191 E26.30047
G1 X128.485 Y55.334 E26.34068
G1 X128.674 Y56.018 E26.36428
G1 X135.395 Y81.917 E27.25422
G1 X136.191 Y84.799 E27.35366
G1 X136.417 Y85.569 E27.38035
G1 X137.198 Y88.098 E27.46839
G1 X138.021 Y90.521 E27.5535
G1 X138.902 Y92.89 E27.63756
G1 X139.84 Y95.21 E27.7208
G1 X140.879 Y97.584 E27.80699
G1 X141.95 Y99.854 E27.89047
G1 X143.103 Y102.13 E27.97533
G1 X144.338 Y104.405 E28.06143
G1 X144.97 Y105.532 E28.1044
G1 X145.376 Y106.338 E28.13442
G1 X145.71 Y107.177 E28.16445
G1 X145.968 Y108.043 E28.19451
G1 X146.148 Y108.928 E28.22455
G1 X146.267 Y110.179 E28.26634
G1 X146.284 Y110.849 E28.28863
G1 X146.282 Y151.013 E29.62449
G1 X146.272 Y151.737 E29.64858
G1 X146.22 Y152.638 E29.67859
G1 X146.088 Y153.532 E29.70865
G1 X145.877 Y154.41 E29.73868
G1 X145.59 Y155.266 E29.76871
G1 X145.228 Y156.094 E29.79877
G1 X144.763 Y156.937 E29.83079
G1 X144.254 Y157.765 E29.86312
G1 X142.938 Y159.974 E29.94864
